static/images/hero-text.svg

<?xml version="1.0" encoding="UTF-8" standalone="no"?>
<svg
   width="1080.88"
   height="369.20801"
   viewBox="0 0 1080.88 369.20801"
   fill="none"
   version="1.1"
   id="svg17"
   sodipodi:docname="b433e2dda7b7f2c8954158603c38daf0.svg"
   xmlns:inkscape="http://www.inkscape.org/namespaces/inkscape"
   xmlns:sodipodi="http://sodipodi.sourceforge.net/DTD/sodipodi-0.dtd"
   xmlns="http://www.w3.org/2000/svg"
   xmlns:svg="http://www.w3.org/2000/svg">
  <sodipodi:namedview
     id="namedview19"
     pagecolor="#ffffff"
     bordercolor="#666666"
     borderopacity="1.0"
     inkscape:pageshadow="2"
     inkscape:pageopacity="0.0"
     inkscape:pagecheckerboard="0" />
  <g
     opacity="0.4"
     filter="url(#filter0_b_1_5)"
     id="g4"
     transform="translate(11.7868,11.208)">
    <path
       d="M 0.213196,14.2877 H 45.3862 V 132 H 60.9438 V 14.2877 H 106.117 V 0.791989 H 0.213196 Z M 160.313,0.791989 H 141.382 L 92.8349,132 h 15.9321 l 12.371,-33.7392 h 58.857 L 192.366,132 h 16.307 z m -9.747,16.494711 25.305,67.4784 h -50.609 z m 139.299,42.174 h -37.488 c -9.184,0 -14.995,-5.8106 -14.995,-14.9952 V 29.2829 c 0,-9.1846 5.811,-14.9952 14.995,-14.9952 h 34.864 c 9.185,0 14.995,5.8106 14.995,14.9952 v 10.8715 h 15.558 V 28.7206 c 0,-16.8696 -11.247,-27.928611 -27.929,-27.928611 h -40.112 c -16.682,0 -27.929,11.059011 -27.929,27.928611 v 16.3072 c 0,16.6822 11.247,27.9286 27.929,27.9286 h 37.488 c 9.185,0 14.995,5.9981 14.995,15.1826 v 15.183 c 0,9.372 -5.81,15.182 -14.995,15.182 h -34.864 c -9.184,0 -14.995,-5.81 -14.995,-15.182 V 92.6376 h -15.558 v 11.4334 c 0,16.683 11.247,27.929 27.929,27.929 h 40.112 c 16.682,0 27.929,-11.246 27.929,-27.929 V 87.3893 c 0,-16.6822 -11.247,-27.9286 -27.929,-27.9286 z M 419.076,132 h 21.18 L 378.401,65.2714 438.195,0.791989 H 418.888 L 359.657,64.709 V 0.791989 H 344.1 V 132 h 15.557 V 67.8955 Z m 90.681,0 h 15.558 V 76.7052 h 56.044 V 63.2095 H 525.315 V 14.2877 h 65.416 V 0.791989 h -80.974 z m 176.372,-28.678 c 0,9.184 -5.81,15.182 -14.995,15.182 h -36.738 c -9.185,0 -14.995,-5.998 -14.995,-15.182 V 29.2829 c 0,-9.1846 5.81,-14.9952 14.995,-14.9952 h 36.738 c 9.185,0 14.995,5.8106 14.995,14.9952 z m 15.558,0.749 V 28.7206 C 701.687,11.851 690.44,0.791989 673.758,0.791989 h -41.986 c -16.682,0 -27.929,11.059011 -27.929,27.928611 v 75.3504 c 0,16.683 11.247,27.929 27.929,27.929 h 41.986 c 16.682,0 27.929,-11.246 27.929,-27.929 z M 822.044,54.3998 V 28.7206 C 822.044,11.851 810.797,0.791989 794.115,0.791989 H 727.949 V 132 h 15.558 V 82.3284 h 39.549 L 804.987,132 h 17.057 L 799.176,81.9535 c 13.871,-2.0618 22.868,-12.5585 22.868,-27.5537 z m -15.558,-0.5623 c 0,9.1846 -5.81,14.9952 -14.995,14.9952 h -47.984 v -54.545 h 47.984 c 9.185,0 14.995,5.8106 14.995,14.9952 z M 942.394,42.966 V 28.7206 c 0,-16.8696 -11.247,-27.928611 -27.929,-27.928611 h -41.987 c -16.682,0 -27.928,11.059011 -27.928,27.928611 v 75.3504 c 0,16.683 11.246,27.929 27.928,27.929 h 41.987 c 16.682,0 27.929,-11.246 27.929,-27.929 V 89.826 h -15.558 v 13.496 c 0,9.184 -5.811,15.182 -14.995,15.182 h -36.738 c -9.185,0 -14.996,-5.998 -14.996,-15.182 V 29.2829 c 0,-9.1846 5.811,-14.9952 14.996,-14.9952 h 36.738 c 9.184,0 14.995,5.8106 14.995,14.9952 V 42.966 Z M 968.656,132 h 84.724 V 118.504 H 984.213 V 72.9564 h 59.797 V 59.4607 h -59.797 v -45.173 h 69.167 V 0.791989 h -84.724 z m -848.81,214 h 38.777 V 170.88 h -38.777 v 70.548 H 57.8036 V 170.88 H 19.0271 V 346 h 38.7765 v -70.798 h 62.0424 z m 68.731,0 H 310.66 v -33.773 h -83.307 v -37.025 h 70.799 V 241.428 H 227.353 V 204.653 H 310.66 V 170.88 H 188.577 Z m 147.073,0 H 457.733 V 312.227 H 374.426 V 170.88 H 335.65 Z m 142.187,0 H 599.921 V 312.227 H 516.614 V 170.88 H 477.837 Z M 759.62,233.423 v -23.266 c 0,-23.516 -15.761,-39.277 -39.277,-39.277 h -61.292 c -23.266,0 -39.027,15.761 -39.027,39.277 v 96.566 c 0,23.516 15.761,39.277 39.027,39.277 h 61.292 c 23.516,0 39.277,-15.761 39.277,-39.277 v -23.266 h -38.777 v 21.265 c 0,5.003 -2.502,7.505 -7.505,7.505 h -47.032 c -5.004,0 -7.505,-2.502 -7.505,-7.505 v -92.564 c 0,-5.003 2.501,-7.505 7.505,-7.505 h 47.032 c 5.003,0 7.505,2.502 7.505,7.505 v 21.265 z M 879.385,170.88 H 831.853 L 774.563,346 h 39.527 l 11.258,-37.025 h 59.291 L 895.896,346 h 40.778 z m -24.517,41.278 19.264,63.044 h -38.527 z m 61.883,-7.505 h 50.784 V 346 h 38.775 V 204.653 h 50.79 V 170.88 H 916.751 Z"
       fill="#ffffff"
       id="path2" />
  </g>
  <defs
     id="defs15">
    <filter
       id="filter0_b_1_5"
       x="-11.7868"
       y="-11.208"
       width="1080.88"
       height="369.20801"
       filterUnits="userSpaceOnUse"
       color-interpolation-filters="sRGB">
      <feFlood
         flood-opacity="0"
         result="BackgroundImageFix"
         id="feFlood6" />
      <feGaussianBlur
         in="BackgroundImage"
         stdDeviation="6"
         id="feGaussianBlur8" />
      <feComposite
         in2="SourceAlpha"
         operator="in"
         result="effect1_backgroundBlur_1_5"
         id="feComposite10" />
      <feBlend
         mode="normal"
         in="SourceGraphic"
         in2="effect1_backgroundBlur_1_5"
         result="shape"
         id="feBlend12" />
    </filter>
  </defs>
</svg>

<svg width="1058" height="346" viewBox="0 0 1058 346" fill="none" xmlns="http://www.w3.org/2000/svg">
<g opacity="0.4" filter="url(#filter0_b_1_5)">
<path d="M0.213196 14.2877H45.3862V132H60.9438V14.2877H106.117V0.791989H0.213196V14.2877ZM160.313 0.791989H141.382L92.8349 132H108.767L121.138 98.2608H179.995L192.366 132H208.673L160.313 0.791989ZM150.566 17.2867L175.871 84.7651H125.262L150.566 17.2867ZM289.865 59.4607H252.377C243.193 59.4607 237.382 53.6501 237.382 44.4655V29.2829C237.382 20.0983 243.193 14.2877 252.377 14.2877H287.241C296.426 14.2877 302.236 20.0983 302.236 29.2829V40.1544H317.794V28.7206C317.794 11.851 306.547 0.791989 289.865 0.791989H249.753C233.071 0.791989 221.824 11.851 221.824 28.7206V45.0278C221.824 61.71 233.071 72.9564 249.753 72.9564H287.241C296.426 72.9564 302.236 78.9545 302.236 88.139V103.322C302.236 112.694 296.426 118.504 287.241 118.504H252.377C243.193 118.504 237.382 112.694 237.382 103.322V92.6376H221.824V104.071C221.824 120.754 233.071 132 249.753 132H289.865C306.547 132 317.794 120.754 317.794 104.071V87.3893C317.794 70.7071 306.547 59.4607 289.865 59.4607ZM419.076 132H440.256L378.401 65.2714L438.195 0.791989H418.888L359.657 64.709V0.791989H344.1V132H359.657V67.8955L419.076 132ZM509.757 132H525.315V76.7052H581.359V63.2095H525.315V14.2877H590.731V0.791989H509.757V132ZM686.129 103.322C686.129 112.506 680.319 118.504 671.134 118.504H634.396C625.211 118.504 619.401 112.506 619.401 103.322V29.2829C619.401 20.0983 625.211 14.2877 634.396 14.2877H671.134C680.319 14.2877 686.129 20.0983 686.129 29.2829V103.322ZM701.687 104.071V28.7206C701.687 11.851 690.44 0.791989 673.758 0.791989H631.772C615.09 0.791989 603.843 11.851 603.843 28.7206V104.071C603.843 120.754 615.09 132 631.772 132H673.758C690.44 132 701.687 120.754 701.687 104.071ZM822.044 54.3998V28.7206C822.044 11.851 810.797 0.791989 794.115 0.791989H727.949V132H743.507V82.3284H783.056L804.987 132H822.044L799.176 81.9535C813.047 79.8917 822.044 69.395 822.044 54.3998ZM806.486 53.8375C806.486 63.0221 800.676 68.8327 791.491 68.8327H743.507V14.2877H791.491C800.676 14.2877 806.486 20.0983 806.486 29.2829V53.8375ZM942.394 42.966V28.7206C942.394 11.851 931.147 0.791989 914.465 0.791989H872.478C855.796 0.791989 844.55 11.851 844.55 28.7206V104.071C844.55 120.754 855.796 132 872.478 132H914.465C931.147 132 942.394 120.754 942.394 104.071V89.826H926.836V103.322C926.836 112.506 921.025 118.504 911.841 118.504H875.103C865.918 118.504 860.107 112.506 860.107 103.322V29.2829C860.107 20.0983 865.918 14.2877 875.103 14.2877H911.841C921.025 14.2877 926.836 20.0983 926.836 29.2829V42.966H942.394ZM968.656 132H1053.38V118.504H984.213V72.9564H1044.01V59.4607H984.213V14.2877H1053.38V0.791989H968.656V132ZM119.846 346H158.623V170.88H119.846V241.428H57.8036V170.88H19.0271V346H57.8036V275.202H119.846V346ZM188.577 346H310.66V312.227H227.353V275.202H298.152V241.428H227.353V204.653H310.66V170.88H188.577V346ZM335.65 346H457.733V312.227H374.426V170.88H335.65V346ZM477.837 346H599.921V312.227H516.614V170.88H477.837V346ZM759.62 233.423V210.157C759.62 186.641 743.859 170.88 720.343 170.88H659.051C635.785 170.88 620.024 186.641 620.024 210.157V306.723C620.024 330.239 635.785 346 659.051 346H720.343C743.859 346 759.62 330.239 759.62 306.723V283.457H720.843V304.722C720.843 309.725 718.341 312.227 713.338 312.227H666.306C661.302 312.227 658.801 309.725 658.801 304.722V212.158C658.801 207.155 661.302 204.653 666.306 204.653H713.338C718.341 204.653 720.843 207.155 720.843 212.158V233.423H759.62ZM879.385 170.88H831.853L774.563 346H814.09L825.348 308.975H884.639L895.896 346H936.674L879.385 170.88ZM854.868 212.158L874.132 275.202H835.605L854.868 212.158ZM916.751 204.653H967.535V346H1006.31V204.653H1057.1V170.88H916.751V204.653Z" fill="white"/>
</g>
<defs>
<filter id="filter0_b_1_5" x="-11.7868" y="-11.208" width="1080.88" height="369.208" filterUnits="userSpaceOnUse" color-interpolation-filters="sRGB">
<feFlood flood-opacity="0" result="BackgroundImageFix"/>
<feGaussianBlur in="BackgroundImage" stdDeviation="6"/>
<feComposite in2="SourceAlpha" operator="in" result="effect1_backgroundBlur_1_5"/>
<feBlend mode="normal" in="SourceGraphic" in2="effect1_backgroundBlur_1_5" result="shape"/>
</filter>
</defs>
</svg>
